!!!OTL: IN DEN HEISSEN JULITAGEN
!!!ARE: Europa, Mitteleuropa, Deutschland
!!!SCT: F0853
!!!YEM: Copyright 1995, estate of Helmut Schaffrath.
**kern
*ICvox
*Ivox
*M2/4
*k[f#]
*G:
=1
{8d
8b
8b
8a
=2
8a
8g
8g
8g}
=3
{8b
8dd
8dd
8cc
=4
8b
8dd
8dd
8dd}
=5
{8.cc
16ee
8ee
8cc
=6
8b
8dd
4dd}
=7
{8.a
16cc
8cc
8a
=8
8a
8g
4g}
==
!!!AGN: erzaehlendes Volks - Lied, Ballade, Attentat, Spott
!!!ONB: ESAC (Essen Associative Code) Database: FINK
!!!AMT: simple duple
!!!AIN: vox
!!!EED: Helmut Schaffrath
!!!EEV: 1.0
*-
